!!! OTL: Zai\,Ying/,Se\,Sha-,Tan-,Shan\ (Under the light of a silver noon)
!!! YEC: Copyright 2001 Chia-wei Lee
!! FOr VOice Only
!![Andantino]
**kern	**silbe
*clefG2	*LXinhua
*E-:	*ping-ying
*M3/4	*
=2	=2
4r	.
4r	.
(8b-	Zai\
8a-)	Na\
=3	=3
4.g	Jing-
8g	Se\
(8ee-	Sha-
8dd)	Tan-
=4	=4
2f	Shan\
8a-	Sa^
8a-	Ze
=5	=5
4.a-	Ying/
8cc	Bai/
(8cc	De
8b-)	Yue\
=6	=6
2b-	Kwan-
8g	Xun/
8b-	Zhao^
=7	=7
4.gg	Wan^
8ff	Shi\
(8ff	Zong-
8ee)	|
=8	=8
2cc	Ying^
8f	Wan^
8cc	Shi\
=9	=9
4.bb-	Zong-
8f	Ying^
(8a-	Mi/
8g)	|
=10	=10
2g	Man
*-	*-
